public/svgs/lines.svg

<?xml version="1.0" encoding="UTF-8" standalone="no"?>
<svg
   version="1.1"
   width="1166.7439"
   height="155.93739"
   viewBox="-0.5 -0.5 1166.7439 155.93739"
   id="svg55"
   sodipodi:docname="lines.svg"
   inkscape:export-filename="lines.svg"
   inkscape:export-xdpi="39.724136"
   inkscape:export-ydpi="39.724136"
   xmlns:inkscape="http://www.inkscape.org/namespaces/inkscape"
   xmlns:sodipodi="http://sodipodi.sourceforge.net/DTD/sodipodi-0.dtd"
   xmlns="http://www.w3.org/2000/svg"
   xmlns:svg="http://www.w3.org/2000/svg">
  <sodipodi:namedview
     id="namedview55"
     pagecolor="#ffffff"
     bordercolor="#000000"
     borderopacity="0.25"
     inkscape:showpageshadow="2"
     inkscape:pageopacity="0.0"
     inkscape:pagecheckerboard="0"
     inkscape:deskcolor="#d1d1d1"
     showgrid="false" />
  <defs
     id="defs1" />
  <g
     id="g55"
     transform="matrix(1,0,0,0.84049161,-40.499997,-0.49999819)">
    <g
       data-cell-id="0"
       id="g54"
       transform="matrix(1.0027739,0,0,1,-0.11095723,0)"
       inkscape:export-filename=".\g54.svg"
       inkscape:export-xdpi="39.724136"
       inkscape:export-ydpi="39.724136">
      <g
         data-cell-id="1"
         id="g53">
        <g
           data-cell-id="poJGV_G9TbdFLlrn6Faf-3"
           id="g26">
          <g
             id="g1" />
          <g
             data-cell-id="T83nffvXhVvffU0h5fAT-1797"
             id="g3">
            <g
               id="g2">
              <path
                 d="m 317.5,232.5 v -420 l 15,-30 v 450 z"
                 fill="#3d8bff"
                 stroke="none"
                 transform="matrix(0,1,1,0,317.5,-317.5)"
                 pointer-events="all"
                 id="path1" />
            </g>
          </g>
          <g
             data-cell-id="T83nffvXhVvffU0h5fAT-1798"
             id="g5">
            <g
               id="g4">
              <path
                 d="m 302.5,262.5 v -450 l 15,-30 v 480 z"
                 fill="#0054c9"
                 stroke="none"
                 transform="matrix(0,1,1,0,287.5,-287.5)"
                 pointer-events="all"
                 id="path3" />
            </g>
          </g>
          <g
             data-cell-id="T83nffvXhVvffU0h5fAT-1799"
             id="g7">
            <g
               id="g6">
              <path
                 d="m 287.5,292.5 v -480 l 15,-30 v 510 z"
                 fill="#f47a96"
                 stroke="none"
                 transform="matrix(0,1,1,0,257.5,-257.5)"
                 pointer-events="all"
                 id="path5" />
            </g>
          </g>
          <g
             data-cell-id="T83nffvXhVvffU0h5fAT-1800"
             id="g9">
            <g
               id="g8">
              <path
                 d="m 549,0 c 26.21,0 49.85,15.74 59.96,39.91 10.12,24.18 4.73,52.06 -13.67,70.72 L 584.64,100.14 C 598.81,85.77 602.96,64.3 595.17,45.68 587.38,27.07 569.18,14.95 549,14.95 Z"
                 fill="#3d8bff"
                 stroke="none"
                 pointer-events="all"
                 id="path7" />
            </g>
          </g>
          <g
             data-cell-id="T83nffvXhVvffU0h5fAT-1801"
             id="g11">
            <g
               id="g10">
              <path
                 d="m 549,15 c 20.16,0 38.35,12.11 46.13,30.7 7.78,18.6 3.63,40.05 -10.53,54.41 L 573.92,89.58 C 583.83,79.53 586.73,64.51 581.29,51.49 575.84,38.47 563.11,30 549,30 Z"
                 fill="#0054c9"
                 stroke="none"
                 pointer-events="all"
                 id="path9" />
            </g>
          </g>
          <g
             data-cell-id="T83nffvXhVvffU0h5fAT-1802"
             id="g13">
            <g
               id="g12">
              <path
                 d="m 549,30 c 14.11,0 26.84,8.47 32.29,21.49 5.44,13.01 2.54,28.03 -7.36,38.08 L 563.21,79 c 5.64,-5.72 7.3,-14.28 4.19,-21.7 C 564.3,49.88 557.04,45.05 549,45.05 Z"
                 fill="#f47a96"
                 stroke="none"
                 pointer-events="all"
                 id="path11" />
            </g>
          </g>
          <g
             data-cell-id="T83nffvXhVvffU0h5fAT-1803"
             id="g15"
             transform="translate(-1.9656076,-93.543304)">
            <g
               id="g14">
              <path
                 d="m 615,279 c -26.21,0 -49.85,-15.74 -59.96,-39.92 -10.12,-24.17 -4.72,-52.06 13.68,-70.72 l 10.64,10.5 c -14.17,14.37 -18.32,35.84 -10.53,54.45 7.78,18.62 25.99,30.74 46.17,30.74 z"
                 fill="#f47a96"
                 stroke="none"
                 pointer-events="all"
                 id="path13" />
            </g>
          </g>
          <g
             data-cell-id="T83nffvXhVvffU0h5fAT-1804"
             id="g17"
             transform="translate(-2.1673272,-93.543304)">
            <g
               id="g16">
              <path
                 d="m 615,264 c -20.16,0 -38.35,-12.11 -46.13,-30.7 -7.78,-18.6 -3.63,-40.05 10.53,-54.41 l 10.68,10.53 c -9.91,10.05 -12.81,25.07 -7.37,38.09 5.45,13.02 18.18,21.49 32.29,21.49 z"
                 fill="#0054c9"
                 stroke="none"
                 pointer-events="all"
                 id="path15" />
            </g>
          </g>
          <g
             data-cell-id="T83nffvXhVvffU0h5fAT-1805"
             id="g19"
             transform="translate(-2.386243,-93.282843)">
            <g
               id="g18">
              <path
                 d="m 615,249 c -14.11,0 -26.84,-8.47 -32.29,-21.49 -5.44,-13.02 -2.54,-28.03 7.36,-38.08 L 600.79,200 c -5.64,5.72 -7.3,14.28 -4.19,21.7 3.1,7.42 10.36,12.25 18.4,12.25 z"
                 fill="#3d8bff"
                 stroke="none"
                 pointer-events="all"
                 id="path17" />
            </g>
          </g>
          <g
             data-cell-id="T83nffvXhVvffU0h5fAT-1806"
             id="g21"
             transform="translate(-18.035659,5.5015875)">
            <g
               id="g20">
              <path
                 d="m 630.55208,150.22686 h 561.00002 l 30,-15 H 630.55208 Z"
                 fill="#3d8bff"
                 stroke="none"
                 pointer-events="all"
                 id="path19" />
            </g>
          </g>
          <g
             data-cell-id="T83nffvXhVvffU0h5fAT-1807"
             id="g23"
             transform="translate(-17.643407,5.7694576)">
            <g
               id="g22">
              <path
                 d="m 630.26989,164.89111 h 531.00001 l 30,-15 H 630.26989 Z"
                 fill="#0054c9"
                 stroke="none"
                 pointer-events="all"
                 id="path21" />
            </g>
          </g>
          <g
             data-cell-id="T83nffvXhVvffU0h5fAT-1808"
             id="g25"
             transform="translate(-17.347887,5.6400457)">
            <g
               id="g24">
              <path
                 d="m 629.97538,179.89111 h 501.00002 l 30,-15 H 629.97538 Z"
                 fill="#f47a96"
                 stroke="none"
                 pointer-events="all"
                 id="path23" />
            </g>
          </g>
        </g>
      </g>
    </g>
  </g>
</svg>

<?xml version="1.0" encoding="UTF-8"?>
<!DOCTYPE svg PUBLIC "-//W3C//DTD SVG 1.1//EN" "http://www.w3.org/Graphics/SVG/1.1/DTD/svg11.dtd">
<svg xmlns="http://www.w3.org/2000/svg" style="background-color: rgb(255, 255, 255);" xmlns:xlink="http://www.w3.org/1999/xlink" version="1.1" width="1205px" height="580px" viewBox="-0.5 -0.5 1205 580"><defs/><rect fill="#ffffff" width="100%" height="100%" x="0" y="0"/><g><g data-cell-id="0"><g data-cell-id="1"><g data-cell-id="poJGV_G9TbdFLlrn6Faf-3"><g/><g data-cell-id="T83nffvXhVvffU0h5fAT-1797"><g><path d="M 317.5 232.5 L 317.5 -187.5 L 332.5 -217.5 L 332.5 232.5 Z" fill="#3d8bff" stroke="none" transform="translate(325,0)scale(-1,1)translate(-325,0)rotate(-270,325,7.5)" pointer-events="all"/></g></g><g data-cell-id="T83nffvXhVvffU0h5fAT-1798"><g><path d="M 302.5 262.5 L 302.5 -187.5 L 317.5 -217.5 L 317.5 262.5 Z" fill="#0054c9" stroke="none" transform="translate(310,0)scale(-1,1)translate(-310,0)rotate(-270,310,22.5)" pointer-events="all"/></g></g><g data-cell-id="T83nffvXhVvffU0h5fAT-1799"><g><path d="M 287.5 292.5 L 287.5 -187.5 L 302.5 -217.5 L 302.5 292.5 Z" fill="#f47a96" stroke="none" transform="translate(295,0)scale(-1,1)translate(-295,0)rotate(-270,295,37.5)" pointer-events="all"/></g></g><g data-cell-id="T83nffvXhVvffU0h5fAT-1800"><g><path d="M 549 0 C 575.21 0 598.85 15.74 608.96 39.91 C 619.08 64.09 613.69 91.97 595.29 110.63 L 584.64 100.14 C 598.81 85.77 602.96 64.3 595.17 45.68 C 587.38 27.07 569.18 14.95 549 14.95 Z" fill="#3d8bff" stroke="none" pointer-events="all"/></g></g><g data-cell-id="T83nffvXhVvffU0h5fAT-1801"><g><path d="M 549 15 C 569.16 15 587.35 27.11 595.13 45.7 C 602.91 64.3 598.76 85.75 584.6 100.11 L 573.92 89.58 C 583.83 79.53 586.73 64.51 581.29 51.49 C 575.84 38.47 563.11 30 549 30 Z" fill="#0054c9" stroke="none" pointer-events="all"/></g></g><g data-cell-id="T83nffvXhVvffU0h5fAT-1802"><g><path d="M 549 30 C 563.11 30 575.84 38.47 581.29 51.49 C 586.73 64.5 583.83 79.52 573.93 89.57 L 563.21 79 C 568.85 73.28 570.51 64.72 567.4 57.3 C 564.3 49.88 557.04 45.05 549 45.05 Z" fill="#f47a96" stroke="none" pointer-events="all"/></g></g><g data-cell-id="T83nffvXhVvffU0h5fAT-1803"><g><path d="M 615 279 C 588.79 279 565.15 263.26 555.04 239.08 C 544.92 214.91 550.32 187.02 568.72 168.36 L 579.36 178.86 C 565.19 193.23 561.04 214.7 568.83 233.31 C 576.61 251.93 594.82 264.05 615 264.05 Z" fill="#f47a96" stroke="none" pointer-events="all"/></g></g><g data-cell-id="T83nffvXhVvffU0h5fAT-1804"><g><path d="M 615 264 C 594.84 264 576.65 251.89 568.87 233.3 C 561.09 214.7 565.24 193.25 579.4 178.89 L 590.08 189.42 C 580.17 199.47 577.27 214.49 582.71 227.51 C 588.16 240.53 600.89 249 615 249 Z" fill="#0054c9" stroke="none" pointer-events="all"/></g></g><g data-cell-id="T83nffvXhVvffU0h5fAT-1805"><g><path d="M 615 249 C 600.89 249 588.16 240.53 582.71 227.51 C 577.27 214.49 580.17 199.48 590.07 189.43 L 600.79 200 C 595.15 205.72 593.49 214.28 596.6 221.7 C 599.7 229.12 606.96 233.95 615 233.95 Z" fill="#3d8bff" stroke="none" pointer-events="all"/></g></g><g data-cell-id="T83nffvXhVvffU0h5fAT-1806"><g><path d="M 902 537 L 902 -24 L 917 -54 L 917 537 Z" fill="#3d8bff" stroke="none" transform="translate(0,241.5)scale(1,-1)translate(0,-241.5)rotate(-270,909.5,241.5)" pointer-events="all"/></g></g><g data-cell-id="T83nffvXhVvffU0h5fAT-1807"><g><path d="M 887 537 L 887 6 L 902 -24 L 902 537 Z" fill="#0054c9" stroke="none" transform="translate(0,256.5)scale(1,-1)translate(0,-256.5)rotate(-270,894.5,256.5)" pointer-events="all"/></g></g><g data-cell-id="T83nffvXhVvffU0h5fAT-1808"><g><path d="M 872 537 L 872 36 L 887 6 L 887 537 Z" fill="#f47a96" stroke="none" transform="translate(0,271.5)scale(1,-1)translate(0,-271.5)rotate(-270,879.5,271.5)" pointer-events="all"/></g></g></g><g data-cell-id="poJGV_G9TbdFLlrn6Faf-10"><g/><g data-cell-id="poJGV_G9TbdFLlrn6Faf-11"><g><path d="M 277.5 552.5 L 277.5 132.5 L 292.5 102.5 L 292.5 552.5 Z" fill="#3d8bff" stroke="none" transform="translate(285,0)scale(-1,1)translate(-285,0)rotate(-270,285,327.5)" pointer-events="all"/></g></g><g data-cell-id="poJGV_G9TbdFLlrn6Faf-12"><g><path d="M 262.5 582.5 L 262.5 132.5 L 277.5 102.5 L 277.5 582.5 Z" fill="#0054c9" stroke="none" transform="translate(270,0)scale(-1,1)translate(-270,0)rotate(-270,270,342.5)" pointer-events="all"/></g></g><g data-cell-id="poJGV_G9TbdFLlrn6Faf-13"><g><path d="M 247.5 612.5 L 247.5 132.5 L 262.5 102.5 L 262.5 612.5 Z" fill="#f47a96" stroke="none" transform="translate(255,0)scale(-1,1)translate(-255,0)rotate(-270,255,357.5)" pointer-events="all"/></g></g><g data-cell-id="poJGV_G9TbdFLlrn6Faf-14"><g><path d="M 509 320 C 536.83 320 561.58 337.72 570.54 364.08 L 556.39 368.89 C 549.49 348.6 530.43 334.95 509 334.95 Z" fill="#3d8bff" stroke="none" pointer-events="all"/></g></g><g data-cell-id="poJGV_G9TbdFLlrn6Faf-15"><g><path d="M 509 335 C 530.46 335 549.53 348.7 556.38 369.04 L 542.17 373.83 C 537.37 359.59 524.02 350 509 350 Z" fill="#0054c9" stroke="none" pointer-events="all"/></g></g><g data-cell-id="poJGV_G9TbdFLlrn6Faf-16"><g><path d="M 509 350 C 524.1 350 537.5 359.69 542.24 374.03 L 527.95 378.75 C 525.25 370.57 517.61 365.05 509 365.05 Z" fill="#f47a96" stroke="none" pointer-events="all"/></g></g><g data-cell-id="poJGV_G9TbdFLlrn6Faf-17"><g><path d="M 575 515 C 545.4 515 519.54 495 512.09 466.36 L 526.56 462.59 C 532.3 484.65 552.21 500.05 575 500.05 Z" fill="#f47a96" stroke="none" pointer-events="all"/></g></g><g data-cell-id="poJGV_G9TbdFLlrn6Faf-18"><g><path d="M 575 500 C 552.28 500 532.41 484.68 526.64 462.7 L 541.15 458.89 C 545.19 474.27 559.09 485 575 485 Z" fill="#0054c9" stroke="none" pointer-events="all"/></g></g><g data-cell-id="poJGV_G9TbdFLlrn6Faf-19"><g><path d="M 575 485 C 559.06 485 545.14 474.23 541.13 458.81 L 555.69 455.02 C 557.98 463.81 565.92 469.95 575 469.95 Z" fill="#3d8bff" stroke="none" pointer-events="all"/></g></g><g data-cell-id="poJGV_G9TbdFLlrn6Faf-20"><g><path d="M 862 773 L 862 212 L 877 182 L 877 773 Z" fill="#3d8bff" stroke="none" transform="translate(0,477.5)scale(1,-1)translate(0,-477.5)rotate(-270,869.5,477.5)" pointer-events="all"/></g></g><g data-cell-id="poJGV_G9TbdFLlrn6Faf-21"><g><path d="M 847 773 L 847 242 L 862 212 L 862 773 Z" fill="#0054c9" stroke="none" transform="translate(0,492.5)scale(1,-1)translate(0,-492.5)rotate(-270,854.5,492.5)" pointer-events="all"/></g></g><g data-cell-id="poJGV_G9TbdFLlrn6Faf-22"><g><path d="M 832 773 L 832 272 L 847 242 L 847 773 Z" fill="#f47a96" stroke="none" transform="translate(0,507.5)scale(1,-1)translate(0,-507.5)rotate(-270,839.5,507.5)" pointer-events="all"/></g></g></g></g></g></g></svg>
